X: 29544
T: Nobody Cares For Me
R: jig
M: 6/8
K: Aminor
E|:ABA AGE|cde B2A|cde edc|Bdc B2G|
ABA AGE|cde B2A|cde edc|1 ecB A2E:|2 ecB A2d||
|:efe edc|ded dcB|cde edc|Bdc B2E|
ABA AGE|cde B2A|cde edc|1 ecB A2d:|2 ecB A2E||

